packages/match-logos/color/svg/rezora.svg

<svg fill="none" height="30" viewBox="0 0 155 30" width="155" xmlns="http://www.w3.org/2000/svg" xmlns:xlink="http://www.w3.org/1999/xlink"><clipPath id="a"><path d="m0 0h154.225v30h-154.225z"/></clipPath><g clip-path="url(#a)" fill="#f2b94c"><path d="m142.189 0c8.266 0 12.036 5.89223 12.036 9.9492v19.11h-5.837v-3.0389s-4.055 3.9753-9.413 3.9753c-4.591 0-10.026-2.3719-10.026-9.1078 0-7.5088 8.266-9.1056 11.705-9.1056 3.438 0 7.729 1.3008 7.729 1.3008v-1.9147c0-1.91256-2.754-5.05081-7.27-5.05081-2.762.02017-5.482.67531-7.95 1.91475l-1.836-5.053s3.898-2.97924 10.862-2.97924zm-.075 15.9938c-4.822 0-6.889 1.875-6.889 4.5164 0 1.3781.46 4.5914 5.663 4.5914s7.425-3.8251 7.425-5.4329v-2.4492s-2.374-1.2257-6.199-1.2257z"/><path d="m109.134.680218v28.378982h6.328v-19.39047c0-2.34761 3.878-4.08127 6.121-4.08127 2.244 0 4.186 1.73366 4.186 1.73366l2.754-5.10159c-2.007-1.410547-4.394-2.1804805-6.847-2.2084826-3.975 0-7.855 3.2398426-7.855 3.2398426z"/><path d="m0 .680951v28.378949h6.3273v-19.39043c0-2.34762 3.8759-4.08128 6.1219-4.08128s4.1829 1.73366 4.1829 1.73366l2.7562-5.10159c-2.0068-1.410545-4.3936-2.1804781-6.8463-2.2084802-3.9753 0-7.85781 3.2398402-7.85781 3.2398402z"/><path d="m104.894 15c0 8.3414-6.7623 14.7968-15.1038 14.7968-8.3414 0-15.1082-6.4554-15.1082-14.7968 0-8.34143 6.7624-14.796814 15.1016-14.796814s15.1104 6.455384 15.1104 14.796814zm-15.1038-9.17623c-5.1722 0-8.7544 4.00397-8.7544 9.17623 0 5.1723 3.5822 9.1762 8.7544 9.1762 5.1723 0 8.7567-4.0039 8.7567-9.1762 0-5.17226-3.5822-9.17623-8.7567-9.17623z"/><path d="m24.5893 17.1224c0 3.4828 3.8759 7.3675 8.4276 7.3675 4.5516 0 7.6546-3.4055 7.6546-3.4055l3.9576 3.5623c-1.4387 1.6324-3.2109 2.9369-5.1971 3.8254s-4.14 1.3403-6.3158 1.3248c-8.3392 0-15.1016-6.4554-15.1016-14.7969 0-8.34138 6.1485-14.9491577 14.4855-14.9491577 8.7014 0 13.2729 7.6015877 13.2729 15.2164577.0006.6186-.037 1.2367-.1126 1.8507zm7.4912-11.63869c-6.3141 0-7.4227 6.60119-7.4227 7.51989h14.4832c0-.9762-.7465-7.51989-7.0605-7.51989z"/><path d="m50.0662.662537h22.882l-.9938 6.046823-15.4593 17.46684h16.4531l-1.1484 4.883-23.4187-.0795.5367-4.8035 15.689-17.77382h-15.8414z"/></g></svg>

<svg width="155" height="30" viewBox="0 0 155 30" fill="none" xmlns="http://www.w3.org/2000/svg">
<g clip-path="url(#clip0)">
<path d="M142.189 0C150.455 0 154.225 5.89223 154.225 9.9492V29.0592H148.388V26.0203C148.388 26.0203 144.333 29.9956 138.975 29.9956C134.384 29.9956 128.949 27.6237 128.949 20.8878C128.949 13.379 137.215 11.7822 140.654 11.7822C144.092 11.7822 148.383 13.083 148.383 13.083V11.1683C148.383 9.25574 145.629 6.11749 141.113 6.11749C138.351 6.13766 135.631 6.7928 133.163 8.03224L131.327 2.97924C131.327 2.97924 135.225 0 142.189 0ZM142.114 15.9938C137.292 15.9938 135.225 17.8688 135.225 20.5102C135.225 21.8883 135.685 25.1016 140.888 25.1016C146.091 25.1016 148.313 21.2765 148.313 19.6687V17.2195C148.313 17.2195 145.939 15.9938 142.114 15.9938Z" fill="#F2B94C"/>
<path d="M109.134 0.680218V29.0592H115.462V9.66873C115.462 7.32112 119.34 5.58746 121.583 5.58746C123.827 5.58746 125.769 7.32112 125.769 7.32112L128.523 2.21953C126.516 0.808983 124.129 0.0390495 121.676 0.0110474C117.701 0.0110474 113.821 3.25089 113.821 3.25089L109.134 0.680218Z" fill="#F2B94C"/>
<path d="M0 0.680951V29.0599H6.3273V9.66947C6.3273 7.32185 10.2032 5.58819 12.4492 5.58819C14.6952 5.58819 16.6321 7.32185 16.6321 7.32185L19.3883 2.22026C17.3815 0.809715 14.9947 0.0397819 12.542 0.0117798C8.5667 0.0117798 4.68419 3.25162 4.68419 3.25162L0 0.680951Z" fill="#F2B94C"/>
<path d="M104.894 15C104.894 23.3414 98.1317 29.7968 89.7902 29.7968C81.4488 29.7968 74.682 23.3414 74.682 15C74.682 6.65857 81.4444 0.203186 89.7836 0.203186C98.1228 0.203186 104.894 6.65857 104.894 15ZM89.7902 5.82377C84.618 5.82377 81.0358 9.82774 81.0358 15C81.0358 20.1723 84.618 24.1762 89.7902 24.1762C94.9625 24.1762 98.5469 20.1723 98.5469 15C98.5469 9.82774 94.9647 5.82377 89.7902 5.82377Z" fill="#F2B94C"/>
<path d="M24.5893 17.1224C24.5893 20.6052 28.4652 24.4899 33.0169 24.4899C37.5685 24.4899 40.6715 21.0844 40.6715 21.0844L44.6291 24.6467C43.1904 26.2791 41.4182 27.5836 39.432 28.4721C37.4458 29.3606 35.292 29.8124 33.1162 29.7969C24.777 29.7969 18.0146 23.3415 18.0146 15C18.0146 6.65862 24.1631 0.0508423 32.5001 0.0508423C41.2015 0.0508423 45.773 7.65243 45.773 15.2673C45.7736 15.8859 45.736 16.504 45.6604 17.118L24.5893 17.1224ZM32.0805 5.48371C25.7664 5.48371 24.6578 12.0849 24.6578 13.0036H39.141C39.141 12.0274 38.3945 5.48371 32.0805 5.48371Z" fill="#F2B94C"/>
<path d="M50.0662 0.662537H72.9482L71.9544 6.70936L56.4951 24.1762H72.9482L71.7998 29.0592L48.3811 28.9797L48.9178 24.1762L64.6068 6.40238H48.7654L50.0662 0.662537Z" fill="#F2B94C"/>
</g>
<defs>
<clipPath id="clip0">
<rect width="154.225" height="30" fill="white"/>
</clipPath>
</defs>
</svg>
